icons/hexagon-divide.svg

<svg xmlns="http://www.w3.org/2000/svg" width="24" height="24" viewBox="0 0 24 24">
  <path d="M16.3173342,1 C17.0224657,1 17.6754933,1.37131518 18.0360686,1.97728201 L23.3914405,10.977282 C23.7664613,11.6075253 23.7664613,12.3924747 23.3914405,13.022718 L18.0360686,22.022718 C17.6754933,22.6286848 17.0224657,23 16.3173342,23 L7.68266576,23 C6.97753431,23 6.32450667,22.6286848 5.96393136,22.022718 L0.608559463,13.022718 C0.233538656,12.3924747 0.233538656,11.6075253 0.608559463,10.977282 L5.96393136,1.97728201 C6.32450667,1.37131518 6.97753431,1 7.68266576,1 L16.3173342,1 Z M12,15 C11.1715729,15 10.5,15.6715729 10.5,16.5 C10.5,17.3284271 11.1715729,18 12,18 C12.8284271,18 13.5,17.3284271 13.5,16.5 C13.5,15.6715729 12.8284271,15 12,15 Z M17,11 L7,11 L6.88337887,11.0067277 C6.38604019,11.0644928 6,11.4871642 6,12 C6,12.5522847 6.44771525,13 7,13 L7,13 L17,13 L17.1166211,12.9932723 C17.6139598,12.9355072 18,12.5128358 18,12 C18,11.4477153 17.5522847,11 17,11 L17,11 Z M12,6 C11.1715729,6 10.5,6.67157288 10.5,7.5 C10.5,8.32842712 11.1715729,9 12,9 C12.8284271,9 13.5,8.32842712 13.5,7.5 C13.5,6.67157288 12.8284271,6 12,6 Z"/>
</svg>

<svg xmlns="http://www.w3.org/2000/svg" viewBox="0 0 24 24">
  <path d="M16.32 1a2 2 0 0 1 1.72.98l5.35 9a2 2 0 0 1 0 2.04l-5.35 9a2 2 0 0 1-1.72.98H7.68a2 2 0 0 1-1.72-.98l-5.35-9a2 2 0 0 1 0-2.04l5.35-9A2 2 0 0 1 7.68 1h8.64zM12 15a1.5 1.5 0 1 0 0 3 1.5 1.5 0 0 0 0-3zm5-4H6.88A1 1 0 0 0 7 13h10.12a1 1 0 0 0-.12-2zm-5-5a1.5 1.5 0 1 0 0 3 1.5 1.5 0 0 0 0-3z"/>
</svg>
